src/pos-icons/peace.svg

<svg height="24" viewBox="0 0 24 24" width="24" xmlns="http://www.w3.org/2000/svg"><path d="m12 2a10 10 0 0 0 -10 10 10 10 0 0 0 10 10 10 10 0 0 0 10-10 10 10 0 0 0 -10-10m-1 12.41v5.52c-1.42-.18-2.77-.74-3.9-1.62zm2 0 3.9 3.9c-1.13.88-2.48 1.44-3.9 1.62zm-9-2.41c0-4.03 3-7.43 7-7.93v7.52l-5.31 5.31c-1.1-1.4-1.69-3.12-1.69-4.9m14.31 4.9-5.31-5.31v-7.52c4 .5 7 3.9 7 7.93 0 1.78-.59 3.5-1.69 4.9z"/></svg>

<?xml version="1.0" encoding="UTF-8"?><!DOCTYPE svg PUBLIC "-//W3C//DTD SVG 1.1//EN" "http://www.w3.org/Graphics/SVG/1.1/DTD/svg11.dtd"><svg xmlns="http://www.w3.org/2000/svg" xmlns:xlink="http://www.w3.org/1999/xlink" version="1.1" id="mdi-peace" width="24" height="24" viewBox="0 0 24 24"><path d="M12,2A10,10 0 0,0 2,12A10,10 0 0,0 12,22A10,10 0 0,0 22,12A10,10 0 0,0 12,2M11,14.41V19.93C9.58,19.75 8.23,19.19 7.1,18.31L11,14.41M13,14.41L16.9,18.31C15.77,19.19 14.42,19.75 13,19.93V14.41M4,12C4,7.97 7,4.57 11,4.07V11.59L5.69,16.9C4.59,15.5 4,13.78 4,12M18.31,16.9L13,11.59V4.07C17,4.57 20,7.97 20,12C20,13.78 19.41,15.5 18.31,16.9Z" /></svg>
